X:1
T:Marsch efter Dahlberg
R:Marsch
S:Efter Ola Bäckström
O:Ore, Dalarna
Z:Jürgen Gier
M:4/4
L:1/8
K:Am
E2|:A3B cBcd|e4 c3e|gage fgfd|efec A2E2|\
A3B cBcd|e4 c3e|gage f2ed|e6::e^g|\
a2g2 f2e2|d3e fefa|g2gf e2ed|c4 A3c|\
e2eg gagf|d3f/d/ _B2AG|A6:|

